src/assets/images/toolbox/nodejs.svg

<svg
  width="32"
  height="32"
  viewBox="0 0 32 32"
  fill="transparent"
  xmlns="http://www.w3.org/2000/svg">
  <path
    fill="#539E43"
    d="M16 32C15.5031 32 15.0394 31.8824 14.6088 31.6766L10.2029 29.3541C9.54038 29.0308 9.87163 28.9132 10.0704 28.8544C10.9648 28.5898 11.1304 28.531 12.0579 28.0606C12.1574 28.0018 12.2899 28.0312 12.3891 28.09L15.7681 29.8833C15.9006 29.9421 16.0662 29.9421 16.1656 29.8833L29.3831 23.0923C29.5156 23.0335 29.5819 22.916 29.5819 22.769V9.21622C29.5819 9.06924 29.5156 8.95165 29.3831 8.89285L16.1656 2.13118C16.0331 2.07239 15.8675 2.07239 15.7681 2.13118L2.55063 8.89296C2.41813 8.95176 2.35188 9.09875 2.35188 9.21633V22.769C2.35188 22.8866 2.41813 23.0335 2.55063 23.0923L6.1615 24.9444C8.116 25.8263 9.3415 24.7974 9.3415 23.7685V10.3921C9.3415 10.2157 9.50725 10.0393 9.73913 10.0393H11.4286C11.6274 10.0393 11.8261 10.1863 11.8261 10.3921V23.7684C11.8261 26.0908 10.4016 27.4431 7.91713 27.4431C7.15525 27.4431 6.559 27.4431 4.86963 26.7082L1.39125 24.9444C0.53 24.5033 0 23.6802 0 22.7983V9.24573C0 8.36382 0.53 7.5407 1.39125 7.09963L14.6088 0.30867C15.4369 -0.10289 16.5631 -0.10289 17.3913 0.30867L30.6087 7.09963C31.47 7.54059 32 8.36371 32 9.24573V22.7984C32 23.6803 31.47 24.5034 30.6087 24.9444L17.3913 31.7355C16.9606 31.9119 16.4638 32 16 32ZM20.0745 22.6807C14.2774 22.6807 13.0849 20.3289 13.0849 18.3298C13.0849 18.1534 13.2505 17.977 13.4824 17.977H15.2049C15.4036 17.977 15.5694 18.0946 15.5694 18.271C15.8344 19.829 16.5962 20.5935 20.1076 20.5935C22.8902 20.5935 24.0829 20.0349 24.0829 18.7121C24.0829 17.9476 23.7516 17.3891 19.412 17.0068C15.8013 16.6834 13.5486 15.9779 13.5486 13.4203C13.5486 11.039 15.8011 9.62789 19.5776 9.62789C23.8178 9.62789 25.9048 10.9214 26.1698 13.7436C26.1698 13.8318 26.1366 13.92 26.0704 14.0082C26.0041 14.067 25.9048 14.1258 25.8054 14.1258H24.0829C23.9171 14.1258 23.7516 14.0082 23.7184 13.8612C23.3209 12.2443 22.294 11.7152 19.5776 11.7152C16.5301 11.7152 16.1656 12.6559 16.1656 13.3614C16.1656 14.2141 16.5962 14.4785 20.7039 14.9489C24.7785 15.4192 26.6998 16.0955 26.6998 18.6237C26.6666 21.2108 24.2816 22.6807 20.0745 22.6807Z"
  />
</svg>

<svg xmlns="http://www.w3.org/2000/svg" width="32" height="32" fill="transparent" xmlns:v="https://vecta.io/nano">
  <path fill="#539e43"
    d="M16 32c-.497 0-.961-.118-1.391-.323l-4.406-2.323c-.663-.323-.331-.441-.133-.5.894-.265 1.06-.323 1.988-.794.1-.059.232-.029.331.029l3.379 1.793c.133.059.298.059.398 0l13.217-6.791c.133-.059.199-.176.199-.323V9.216c0-.147-.066-.265-.199-.323L16.166 2.131c-.133-.059-.298-.059-.398 0L2.551 8.893c-.132.059-.199.206-.199.323v13.553c0 .118.066.265.199.323l3.611 1.852c1.954.882 3.18-.147 3.18-1.176V10.392c0-.176.166-.353.398-.353h1.689c.199 0 .398.147.398.353v13.376c0 2.322-1.424 3.675-3.909 3.675-.762 0-1.358 0-3.048-.735l-3.478-1.764C.53 24.503 0 23.68 0 22.798V9.246C0 8.364.53 7.541 1.391 7.1L14.609.309c.828-.412 1.954-.412 2.783 0L30.609 7.1C31.47 7.541 32 8.364 32 9.246v13.553c0 .882-.53 1.705-1.391 2.146l-13.217 6.791A3.76 3.76 0 0 1 16 32zm4.075-9.319c-5.797 0-6.99-2.352-6.99-4.351 0-.176.166-.353.398-.353h1.723c.199 0 .364.118.364.294.265 1.558 1.027 2.322 4.538 2.322 2.783 0 3.975-.559 3.975-1.881 0-.764-.331-1.323-4.671-1.705-3.611-.323-5.863-1.029-5.863-3.586 0-2.381 2.252-3.792 6.029-3.792 4.24 0 6.327 1.294 6.592 4.116a.44.44 0 0 1-.099.265.43.43 0 0 1-.265.118h-1.723c-.166 0-.331-.118-.364-.265-.397-1.617-1.424-2.146-4.141-2.146-3.047 0-3.412.941-3.412 1.646 0 .853.431 1.117 4.538 1.588 4.075.47 5.996 1.147 5.996 3.675-.033 2.587-2.418 4.057-6.625 4.057z" />
</svg>
